source/img/contacts/ya_maps_pin.svg

<svg width="63" height="63" viewBox="0 0 63 63" fill="none" xmlns="http://www.w3.org/2000/svg">
<rect x="31.418" width="44.4325" height="44.4325" transform="rotate(45 31.418 0)" fill="#C30215"/>
<path d="M40.3044 31.5L31.5 40.3044L22.749 31.5L31.5 22.749L40.3044 31.5ZM38.8636 24.1364L35.5553 18H27.4447L24.1364 24.1364L18 27.4447V35.5553L24.1364 38.8636L27.4447 45H35.5553L38.8636 38.8636L45 35.5553V27.4447L38.8636 24.1364Z" fill="white"/>
<path d="M33.3695 22.751L43.6146 28.3004V32.996L33.3695 22.751ZM34.7569 43.668H30.0612L40.3063 33.4229L34.7569 43.668ZM19.3359 34.7569V30.0079L29.581 40.2529L19.3359 34.7569ZM28.247 19.3359H32.9427L22.751 29.6344L28.247 19.3359Z" fill="#4F4F4F"/>
</svg>

<svg width="63" height="63" fill="none" xmlns="http://www.w3.org/2000/svg"><path fill="#C30215" d="M31.418 0l31.418 31.418-31.418 31.418L0 31.418z"/><path d="M40.304 31.5L31.5 40.304 22.749 31.5l8.751-8.751 8.804 8.751zm-1.44-7.364L35.555 18h-8.11l-3.309 6.136L18 27.445v8.11l6.136 3.309L27.445 45h8.11l3.309-6.136L45 35.555v-8.11l-6.136-3.309z" fill="#fff"/><path d="M33.37 22.751l10.245 5.55v4.695L33.37 22.751zm1.387 20.917H30.06l10.245-10.245-5.55 10.245zm-15.421-8.911v-4.75L29.58 40.254l-10.245-5.496zm8.911-15.421h4.696L22.75 29.634l5.496-10.298z" fill="#4F4F4F"/></svg>
